X:7158
T:The Old Players
O:england
R:reel
C:Ed Reavy
M:2/2
L:1/8
N:The tune commemorates the great fiddlers of
N:the past: Michael Coleman, Kipeen Scanlon,
N:and a host of unheralded ones who went to the
N:clay unrecognized. The history of Ireland is
N:a fiddle. It alone can convey the sounds and
N:feelings of sad gaiety that characterize the
N:plight of that long-troubled land.
K:C
BG|EAAB ^cded|^cdec dBGD|EAAB ^cde^f|ge^fa gefd|
^cde^f gfge|a^ge^c d2 cd|ede^f gfge|dBGB A2:||
e^g|a2 ^gb aged|^cdef gfef|g2 ^fa gfef|g^fgd BGG^g|
a2 ^gb aged|^cde^f gfge|(3aa^g a^f =gfge|dBGB A2:||


